X:11
T:Blew Cap (for me)
M:6/8
L:1/8
K:G minor
%Q:
%
F | "Bb" BBf bbd | "Cm" c2 B "Eb" G2 d | "Gm" BBf "Bb" ddf | "C" c>f=e "F" f2 :|
|: f | "Bb" ddB "Cm" ccG | "Bb" F2 d "Eb" e2 g | "Bb" ffd "F" fga | "Gm" bf"Bb"d "F"
%
%
